X: 2
T: Young Jane
I: Young Jane	W-2	G	waltz
C: W-2
M: 3/4
Z: Transcribed to abc by Mary Lou Knack
R: waltz
K: G
(3DEF| "G"G3 A B2| A2 B2 d2| "C"e4 e2| "D7"d3 B A2|       "G"G3 A2 B| "D7"A4 G2| "C"E6| "D7"D4 EF|
       "G"G3 A B2| A2 B2 d2| "C"e4 e2| "G"d4 e2|          G3 A2 B| "D7"A4 G2| "G"G6-| G4|]
Bc| "G"d2 B2 d2| g3 f g2| "C"e4 e2| "Am"A4 B2|    "D7"c3 d e2| d2 B2 A2| "G"G6| "D7"F4 (3DEF |
    "G"G3 A B2| A2 B2 d2| "C"e4 e2| "G"d4 e2|       G3 A2 B| "D7"A4 G2| "G"G6-| G4|]
% %text 9/1/98 For use only by Roaring Jelly members

#include "LeftHeader.h"
% ---------- page 2 ----------
